X:3057
T:City of Savannah
M:4/4
L:1/8
R:Reel
Z:Transcribed from Matt Molloy's "Stony Steps" album by Marja Hendriks
K:D
B|ADFA dfaf|ga ba gfed|cded cdBd|A2 ^GA =GAFG|
A2 FA dfaf|gaba gfed|cdBd AFAE|1 FAEc D>B:|2 FAEA d>f:|
e2 de aec'e|be^ge aec'e|fece ac'ea|^gbe^g a2 ba|
a2 ^ga =ge ba|a2 ga fd a2|~g2 A2 ~f2 A2|1 e2 (3ABc d>f:|2 e2 (3ABc D>B:|


